X:1
T: Lynne's Reel
C:
R:Reel
Q: 232
K:D
M:4/4
L:1/8
|:((3ABc) |dc de fd A^A|Bc dB A2 ((3ABc) |dc de fe df|ed cB A2 ((3ABc) |
dc de fd A^A|Bc dB g2 ag|fe df ea Ac|d6 cd|
ec Ac ea ^ga|fe de f2 ba|^ge fg bg eg|a2 a^g a2 ((3ABc) |
dc de fd A^A|Bc dB g2 ag|fe df ea Ac|d6:|
